;FLAVOR:Marlin
;TIME:1916.31
;Filament used:2.93m
;Layer height:0.2
; HEADER_BLOCK_START
; generated by OrcaSlicer 2.3.2 on 2026-04-28 at 12:40:42
; total layer number: 18
; filament_density: 1.27
; filament_diameter: 1.75
; max_z_height: 3.64
; filament: 1
; HEADER_BLOCK_END

; external perimeters extrusion width = 0.42mm
; perimeters extrusion width = 0.45mm
; infill extrusion width = 0.45mm
; solid infill extrusion width = 0.42mm
; top infill extrusion width = 0.42mm
; first layer extrusion width = 0.46mm

; EXECUTABLE_BLOCK_START
M201 X2500 Y2500 Z500 E5000
M203 X250 Y250 Z5 E40
M204 P2500 R500 T2500 ; sets acceleration (P, T) and retract acceleration (R), mm/sec^2
M205 X10.00 Y10.00 Z0.40 E5.00 ; sets the jerk limits, mm/sec
M205 J0.010
;TYPE:Custom
M220 S100 ;Reset Feedrate 
M221 S100 ;Reset Flowrate 
 
M104 S240 ;Set final nozzle temp 
M190 S75 ;Set and wait for bed temp to stabilize 
G28 ;Home 
G92 E0 ;Reset Extruder 
G1 Z2.0 F3000 ;Move Z Axis up 
G1 X-2.1 Y20 Z0.28 F5000.0 ;Move to start position 
M109 S240 ;Wait for nozzle temp to stabilize 
G1 X-2.1 Y145.0 Z0.28 F1500.0 E15 ;Draw the first line 
G1 X-2.4 Y145.0 Z0.28 F5000.0 ;Move to side a little 
G1 X-2.4 Y20 Z0.28 F1500.0 E30 ;Draw the second line 
G92 E0  ;Reset Extruder 
G1 E-1.0000 F1800 ;Retract a bit 
G1 Z2.0 F3000 ;Move Z Axis up 
G1 E0.0000 F1800
G90
G21
M83 ; use relative distances for extrusion
; filament start gcode
M106 S0
;LAYER_CHANGE
;Z:0.24
;HEIGHT:0.24
;BEFORE_LAYER_CHANGE
;0.24
G92 E0

G1 E-1.2 F2400
;_SET_FAN_SPEED_CHANGING_LAYER
M204 P500
; printing object HP_z230_Pyramid_1.0_IO_Shield.stl id:2097095253 copy 0
M204 T500
G1 X30.073 Y87.073 F9000
G1 Z.64
G1 Z.24
G1 E1.2 F1800
;TYPE:Inner wall
;WIDTH:0.459999
G1 F1200
G1 X189.927 Y87.073 E6.18986
G1 X189.927 Y132.927 E1.77557
G1 X30.073 Y132.927 E6.18986
G1 X30.073 Y87.113 E1.77402
G1 X29.664 Y86.664 F9000
G1 F1200
G1 X190.336 Y86.664 E6.22149
G1 X190.336 Y133.336 E1.80721
G1 X29.664 Y133.336 E6.22149
G1 X29.664 Y86.704 E1.80566
G1 X29.23 Y86.23 F9000
;TYPE:Outer wall
G1 F1200
G1 X190.77 Y86.23 E6.25512
G1 X190.77 Y133.77 E1.84083
G1 X29.23 Y133.77 E6.25512
G1 X29.23 Y86.27 E1.83929
G1 E-.84 F2400
;WIPE_START
G1 F1200
G1 X30.23 Y86.27 E-.36
;WIPE_END
G1 F9000
G1 X30.7347 Y86.5605 Z0.270769
G1 X31.0465 Y87.0525 Z0.301538
G1 X31.0939 Y87.6331 Z0.332308
G1 X30.8661 Y88.1692 Z0.363077
G1 X30.4152 Y88.538 Z0.393846
G1 X29.8446 Y88.655 Z0.424615
G1 X29.285 Y88.4935 Z0.455385
G1 X28.8645 Y88.0904 Z0.486154
G1 X28.6796 Y87.538 Z0.516923
G1 X28.7725 Y86.963 Z0.547692
G1 X29.122 Y86.497 Z0.578462
G1 X29.648 Y86.2468 Z0.609231
G1 X30.23 Y86.2698 Z0.64
G1 X176.75 Y128.564 Z.64
G1 Z.24
G1 E1.2 F1800
;TYPE:Inner wall
G1 F1200
G1 X176.59 Y128.564 E.00619
G1 X175.337 Y128.365 E.04913
G1 X175.033 Y128.266 E.01238
G1 X173.902 Y127.69 E.04914
G1 X173.644 Y127.502 E.01236
G1 X172.748 Y126.606 E.04909
G1 X172.56 Y126.348 E.01236
G1 X171.984 Y125.217 E.04914
G1 X171.885 Y124.912 E.01241
G1 X171.687 Y123.659 E.04912
G1 X171.687 Y123.341 E.01232
G1 X171.885 Y122.088 E.04912
G1 X171.984 Y121.783 E.01241
G1 X172.646 Y120.513 E.05548
G1 X173.787 Y119.369 E.06254
G1 X174.983 Y118.759 E.052
G1 X175.337 Y118.635 E.01453
G1 X176.59 Y118.436 E.04913
G1 X176.91 Y118.436 E.01238
G1 X178.163 Y118.635 E.04913
G1 X178.467 Y118.734 E.01238
G1 X179.598 Y119.31 E.04914
G1 X179.856 Y119.498 E.01236
G1 X180.752 Y120.394 E.04909
G1 X180.94 Y120.652 E.01236
G1 X181.516 Y121.783 E.04914
G1 X181.615 Y122.087 E.01238
G1 X181.814 Y123.34 E.04913
G1 X181.814 Y123.66 E.01238
G1 X181.615 Y124.913 E.04913
G1 X181.516 Y125.217 E.01238
G1 X180.94 Y126.348 E.04914
G1 X180.752 Y126.606 E.01236
G1 X179.856 Y127.502 E.04909
G1 X179.598 Y127.69 E.01236
G1 X178.467 Y128.266 E.04914
G1 X178.163 Y128.365 E.01238
G1 X176.91 Y128.564 E.04913
G1 X176.79 Y128.564 E.00464
G1 X176.75 Y128.16 F9000
G1 F1200
G1 X176.654 Y128.16 E.00371
G1 X175.401 Y127.962 E.04913
G1 X175.219 Y127.902 E.00743
G1 X174.088 Y127.326 E.04914
G1 X173.933 Y127.213 E.00742
G1 X173.037 Y126.317 E.04909
G1 X172.636 Y125.597 E.03192
G1 X172.348 Y125.031 E.02457
G1 X172.288 Y124.849 E.00745
G1 X172.091 Y123.595 E.04912
G1 X172.091 Y123.405 E.00739
G1 X172.288 Y122.151 E.04912
G1 X172.348 Y121.969 E.00745
G1 X172.924 Y120.838 E.04914
G1 X173.619 Y120.101 E.03923
G1 X174.018 Y119.71 E.02165
G1 X175.169 Y119.123 E.05001
G1 X175.401 Y119.038 E.00958
G1 X176.654 Y118.84 E.04913
G1 X176.846 Y118.84 E.00743
G1 X178.099 Y119.038 E.04913
G1 X178.281 Y119.098 E.00743
G1 X179.412 Y119.674 E.04914
G1 X179.567 Y119.787 E.00742
G1 X180.463 Y120.683 E.04909
G1 X180.576 Y120.838 E.00742
G1 X181.152 Y121.969 E.04914
G1 X181.212 Y122.151 E.00743
G1 X181.41 Y123.404 E.04913
G1 X181.41 Y123.596 E.00743
G1 X181.212 Y124.849 E.04913
G1 X181.152 Y125.031 E.00743
G1 X180.576 Y126.162 E.04914
G1 X180.463 Y126.317 E.00742
G1 X179.567 Y127.213 E.04909
G1 X179.412 Y127.326 E.00742
G1 X178.281 Y127.902 E.04914
G1 X178.099 Y127.962 E.00743
G1 X176.846 Y128.16 E.04913
G1 X176.79 Y128.16 E.00216
G1 X176.75 Y127.736 F9000
;TYPE:Outer wall
G1 F1200
G1 X175.441 Y127.528 E.05132
G1 X174.26 Y126.926 E.05133
G1 X173.344 Y126.01 E.05019
G1 X172.734 Y124.834 E.05127
G1 X172.615 Y124.131 E.02764
G1 X172.515 Y123.5 E.02472
G1 X172.721 Y122.191 E.05131
G1 X173.311 Y121.035 E.05024
G1 X174.285 Y120.061 E.05336
G1 X175.441 Y119.472 E.05023
G1 X176.75 Y119.264 E.05132
G1 X178.059 Y119.472 E.05132
G1 X179.24 Y120.074 E.05133
G1 X180.189 Y121.035 E.05232
G1 X180.778 Y122.191 E.05023
G1 X180.986 Y123.5 E.05132
G1 X180.778 Y124.809 E.05132
G1 X180.156 Y126.01 E.05237
G1 X179.24 Y126.926 E.05019
G1 X178.059 Y127.528 E.05133
G1 X176.79 Y127.73 E.04977
G1 E-.84 F2400
;WIPE_START
G1 F1200
G1 X175.8 Y127.582 E-.36
;WIPE_END
G1 F9000
G1 X175.923 Y127.013 Z0.270769
G1 X176.295 Y126.565 Z0.301538
G1 X176.834 Y126.342 Z0.332308
G1 X177.414 Y126.395 Z0.363077
G1 X177.903 Y126.711 Z0.393846
G1 X178.189 Y127.218 Z0.424615
G1 X178.207 Y127.8 Z0.455385
G1 X177.952 Y128.324 Z0.486154
G1 X177.483 Y128.669 Z0.516923
G1 X176.907 Y128.757 Z0.547692
G1 X176.356 Y128.567 Z0.578462
G1 X175.957 Y128.143 Z0.609231
G1 X175.8 Y127.582 Z0.64
G1 X175.154 Y106.282 Z.64
G1 Z.24
G1 E1.2 F1800
;TYPE:Inner wall
G1 F1200
G1 X175.339 Y106.227 E.00749
G1 X176.54 Y106.036 E.0471
G1 X176.908 Y106.044 E.01425
G1 X178.113 Y106.235 E.04723
G1 X178.467 Y106.359 E.01453
G1 X179.548 Y106.91 E.04697
G1 X179.856 Y107.148 E.01507
G1 X180.702 Y107.994 E.04636
G1 X180.89 Y108.252 E.01236
G1 X181.466 Y109.383 E.04914
G1 X181.565 Y109.687 E.01238
G1 X181.764 Y110.94 E.04913
G1 X181.764 Y111.26 E.01238
G1 X181.565 Y112.513 E.04913
G1 X181.466 Y112.817 E.01238
G1 X180.89 Y113.948 E.04914
G1 X180.702 Y114.206 E.01236
G1 X179.806 Y115.102 E.04909
G1 X179.548 Y115.29 E.01236
G1 X178.417 Y115.866 E.04914
G1 X178.112 Y115.965 E.01241
G1 X176.859 Y116.163 E.04912
G1 X176.541 Y116.163 E.01232
G1 X175.288 Y115.965 E.04912
G1 X174.983 Y115.866 E.01241
G1 X173.852 Y115.29 E.04914
G1 X173.594 Y115.102 E.01236
G1 X172.698 Y114.206 E.04909
G1 X172.51 Y113.948 E.01236
G1 X171.934 Y112.817 E.04914
G1 X171.835 Y112.512 E.01241
G1 X171.637 Y111.259 E.04912
G1 X171.637 Y110.941 E.01232
G1 X171.835 Y109.688 E.04912
G1 X171.934 Y109.383 E.01241
G1 X172.51 Y108.252 E.04914
G1 X172.698 Y107.994 E.01236
G1 X173.594 Y107.098 E.04909
G1 X173.902 Y106.885 E.01451
G1 X174.983 Y106.334 E.04696
G1 X175.115 Y106.294 E.00535
G1 X175.274 Y106.667 F9000
G1 F1200
G1 X175.403 Y106.63 E.00518
G1 X176.604 Y106.44 E.0471
G1 X176.844 Y106.447 E.0093
G1 X178.049 Y106.638 E.04723
G1 X178.281 Y106.723 E.00958
G1 X179.362 Y107.274 E.04697
G1 X179.567 Y107.437 E.01013
G1 X180.413 Y108.283 E.04636
G1 X180.526 Y108.438 E.00742
G1 X181.102 Y109.569 E.04914
G1 X181.162 Y109.751 E.00743
G1 X181.36 Y111.004 E.04913
G1 X181.36 Y111.196 E.00743
G1 X181.162 Y112.449 E.04913
G1 X181.102 Y112.631 E.00743
G1 X180.526 Y113.762 E.04914
G1 X180.413 Y113.917 E.00742
G1 X179.517 Y114.813 E.04909
G1 X179.362 Y114.926 E.00742
G1 X178.231 Y115.502 E.04914
G1 X178.049 Y115.562 E.00745
G1 X176.795 Y115.759 E.04912
G1 X176.605 Y115.759 E.00739
G1 X175.351 Y115.562 E.04912
G1 X175.169 Y115.502 E.00745
G1 X174.038 Y114.926 E.04914
G1 X173.619 Y114.549 E.02183
G1 X172.987 Y113.917 E.03462
G1 X172.874 Y113.762 E.00742
G1 X172.298 Y112.631 E.04914
G1 X172.238 Y112.449 E.00745
G1 X172.041 Y111.195 E.04912
G1 X172.041 Y111.005 E.00739
G1 X172.238 Y109.751 E.04912
G1 X172.298 Y109.569 E.00745
G1 X172.874 Y108.438 E.04914
G1 X172.987 Y108.283 E.00742
G1 X173.883 Y107.387 E.04909
G1 X174.088 Y107.248 E.00957
G1 X175.169 Y106.698 E.04696
G1 X175.236 Y106.678 E.00272
G1 X175.391 Y107.072 F9000
;TYPE:Outer wall
G1 F1200
G1 X176.7 Y106.864 E.05132
G1 X178.009 Y107.072 E.05132
G1 X179.19 Y107.674 E.05133
G1 X180.126 Y108.61 E.05128
G1 X180.728 Y109.791 E.05133
G1 X180.936 Y111.1 E.05132
G1 X180.728 Y112.409 E.05132
G1 X180.126 Y113.59 E.05133
G1 X179.26 Y114.456 E.04745
G1 X179.165 Y114.539 E.00488
G1 X178.009 Y115.128 E.05024
G1 X176.7 Y115.335 E.05131
G1 X175.391 Y115.129 E.05131
G1 X174.285 Y114.565 E.04806
G1 X173.274 Y113.591 E.05434
G1 X172.671 Y112.409 E.05139
G1 X172.465 Y111.1 E.05131
G1 X172.671 Y109.791 E.05131
G1 X173.261 Y108.635 E.05024
G1 X173.908 Y107.976 E.03579
G1 X174.285 Y107.635 E.01967
G1 X175.355 Y107.09 E.04651
G1 E-.84 F2400
;WIPE_START
G1 F1200
G1 X176.342 Y106.924 E-.36
;WIPE_END
G1 F9000
G1 X176.43 Y106.349 Z0.270769
G1 X176.776 Y105.88 Z0.301538
G1 X177.3 Y105.626 Z0.332308
G1 X177.883 Y105.645 Z0.363077
G1 X178.39 Y105.932 Z0.393846
G1 X178.705 Y106.421 Z0.424615
G1 X178.757 Y107.002 Z0.455385
G1 X178.533 Y107.539 Z0.486154
G1 X178.084 Y107.911 Z0.516923
G1 X177.515 Y108.033 Z0.547692
G1 X176.954 Y107.875 Z0.578462
G1 X176.531 Y107.475 Z0.609231
G1 X176.342 Y106.924 Z0.64
G1 X175.185 Y93.934 Z.64
G1 Z.24
G1 E1.2 F1800
;TYPE:Inner wall
G1 F1200
G1 X175.337 Y93.885 E.00619
G1 X176.59 Y93.686 E.04913
G1 X176.91 Y93.686 E.01238
G1 X178.163 Y93.885 E.04913
G1 X178.467 Y93.984 E.01238
G1 X179.598 Y94.56 E.04914
G1 X179.856 Y94.748 E.01236
G1 X180.752 Y95.644 E.04909
G1 X180.94 Y95.902 E.01236
G1 X181.516 Y97.033 E.04914
G1 X181.615 Y97.338 E.01241
G1 X181.813 Y98.591 E.04912
G1 X181.813 Y98.909 E.01232
G1 X181.615 Y100.162 E.04912
G1 X181.516 Y100.467 E.01241
G1 X180.94 Y101.598 E.04914
G1 X180.702 Y101.906 E.01507
G1 X179.856 Y102.752 E.04636
G1 X179.548 Y102.965 E.01451
G1 X178.467 Y103.516 E.04697
G1 X178.114 Y103.623 E.01428
G1 X176.909 Y103.813 E.04723
G1 X176.539 Y103.805 E.01432
G1 X175.338 Y103.615 E.0471
G1 X174.983 Y103.491 E.01456
G1 X173.902 Y102.94 E.04696
G1 X173.594 Y102.702 E.01507
G1 X172.748 Y101.856 E.04636
G1 X172.56 Y101.598 E.01236
G1 X171.984 Y100.467 E.04914
G1 X171.885 Y100.163 E.01238
G1 X171.686 Y98.91 E.04913
G1 X171.686 Y98.59 E.01238
G1 X171.885 Y97.337 E.04913
G1 X171.984 Y97.033 E.01238
G1 X172.56 Y95.902 E.04914
G1 X172.748 Y95.644 E.01236
G1 X173.644 Y94.748 E.04909
G1 X173.902 Y94.56 E.01236
G1 X175.033 Y93.984 E.04914
G1 X175.147 Y93.947 E.00464
G1 X175.31 Y94.318 F9000
G1 F1200
G1 X175.401 Y94.288 E.00371
G1 X176.654 Y94.09 E.04913
G1 X176.846 Y94.09 E.00743
G1 X178.099 Y94.288 E.04913
G1 X178.281 Y94.348 E.00743
G1 X179.412 Y94.924 E.04914
G1 X179.567 Y95.037 E.00742
G1 X180.463 Y95.933 E.04909
G1 X180.576 Y96.088 E.00742
G1 X181.152 Y97.219 E.04914
G1 X181.212 Y97.401 E.00745
G1 X181.409 Y98.655 E.04912
G1 X181.409 Y98.845 E.00739
G1 X181.212 Y100.099 E.04912
G1 X181.152 Y100.281 E.00745
G1 X180.576 Y101.412 E.04914
G1 X180.413 Y101.617 E.01013
G1 X179.567 Y102.463 E.04636
G1 X179.362 Y102.602 E.00957
G1 X178.281 Y103.152 E.04697
G1 X178.05 Y103.219 E.00932
G1 X176.845 Y103.409 E.04723
G1 X176.603 Y103.401 E.0094
G1 X175.401 Y103.212 E.0471
G1 X175.169 Y103.127 E.0096
G1 X174.088 Y102.576 E.04696
G1 X173.601 Y102.131 E.02553
G1 X173.037 Y101.567 E.03091
G1 X172.924 Y101.412 E.00742
G1 X172.348 Y100.281 E.04914
G1 X172.288 Y100.099 E.00743
G1 X172.09 Y98.846 E.04913
G1 X172.09 Y98.654 E.00743
G1 X172.288 Y97.401 E.04913
G1 X172.348 Y97.219 E.00743
G1 X172.924 Y96.088 E.04914
G1 X173.037 Y95.933 E.00742
G1 X173.933 Y95.037 E.04909
G1 X174.088 Y94.924 E.00742
G1 X175.219 Y94.348 E.04914
G1 X175.272 Y94.33 E.00217
G1 X175.441 Y94.722 F9000
;TYPE:Outer wall
G1 F1200
G1 X176.75 Y94.514 E.05132
G1 X178.059 Y94.722 E.05132
G1 X179.24 Y95.324 E.05133
G1 X180.176 Y96.26 E.05128
G1 X180.779 Y97.441 E.05133
G1 X180.985 Y98.75 E.05131
G1 X180.779 Y100.059 E.05131
G1 X180.176 Y101.24 E.05133
G1 X179.24 Y102.176 E.05128
G1 X178.059 Y102.779 E.05133
G1 X176.75 Y102.985 E.05131
G1 X175.441 Y102.779 E.05131
G1 X174.285 Y102.189 E.05024
G1 X173.908 Y101.824 E.02032
G1 X173.324 Y101.24 E.03201
G1 X172.722 Y100.059 E.05133
G1 X172.514 Y98.75 E.05132
G1 X172.722 Y97.441 E.05132
G1 X173.324 Y96.26 E.05133
G1 X174.26 Y95.324 E.05128
G1 X175.405 Y94.74 E.04978
G1 E-.84 F2400
;WIPE_START
G1 F1200
G1 X176.392 Y94.574 E-.36
;WIPE_END
G1 F9000
G1 X175.852 Y94.3541 Z0.270769
G1 X175.477 Y93.9085 Z0.301538
G1 X175.352 Y93.3396 Z0.332308
G1 X175.506 Y92.7778 Z0.363077
G1 X175.903 Y92.3516 Z0.393846
G1 X176.452 Y92.1588 Z0.424615
G1 X177.029 Y92.2436 Z0.455385
G1 X177.5 Y92.5864 Z0.486154
G1 X177.757 Y93.1088 Z0.516923
G1 X177.743 Y93.6911 Z0.547692
G1 X177.459 Y94.1999 Z0.578462
G1 X176.971 Y94.5186 Z0.609231
G1 X176.392 Y94.5743 Z0.64
G1 X151.919 Y90.976 Z.64
G1 Z.24
G1 E1.2 F1800
;TYPE:Inner wall
G1 F1200
G1 X152.064 Y90.925 E.00594
G1 X166.305 Y90.925 E.55142
G1 X166.594 Y90.967 E.01133
G1 X166.85 Y91.083 E.01088
G1 X167.051 Y91.249 E.01008
G1 X167.274 Y91.627 E.01701
G1 X167.326 Y91.946 E.01253
G1 X167.326 Y124.555 E1.26264
G1 X167.252 Y124.936 E.01506
G1 X167.09 Y125.207 E.01219
G1 X166.883 Y125.396 E.01086
G1 X166.614 Y125.528 E.01159
G1 X166.305 Y125.576 E.01214
G1 X152.196 Y125.576 E.54629
G1 X151.865 Y125.521 E.013
G1 X151.584 Y125.371 E.01233
G1 X151.38 Y125.167 E.01118
G1 X151.216 Y124.84 E.01415
G1 X151.175 Y124.555 E.01118
G1 X151.175 Y91.946 E1.26264
G1 X151.21 Y91.681 E.01037
G1 X151.369 Y91.348 E.01428
G1 X151.514 Y91.187 E.0084
G1 X151.707 Y91.05 E.00914
G1 X151.881 Y90.989 E.00716
G1 X152.196 Y91.334 F9000
G1 F1200
G1 X166.305 Y91.334 E.54629
G1 X166.632 Y91.428 E.01319
G1 X166.836 Y91.641 E.01142
G1 X166.917 Y91.946 E.01223
G1 X166.917 Y124.555 E1.26264
G1 X166.873 Y124.784 E.00904
G1 X166.714 Y125.01 E.0107
G1 X166.49 Y125.138 E.00999
G1 X166.305 Y125.167 E.00728
G1 X152.196 Y125.167 E.54629
G1 X151.908 Y125.095 E.01151
G1 X151.706 Y124.922 E.01029
G1 X151.584 Y124.642 E.01184
G1 X151.584 Y117.376 E.28135
G1 X151.584 Y91.946 E.98468
G1 X151.641 Y91.689 E.01022
G1 X151.787 Y91.491 E.00954
G1 X152.079 Y91.334 E.01284
G1 X152.156 Y91.334 E.003
G1 X152.196 Y91.768 F9000
;TYPE:Outer wall
G1 F1200
G1 X166.305 Y91.768 E.54629
G1 X166.435 Y91.825 E.0055
G1 X166.483 Y91.946 E.00507
G1 X166.483 Y124.558 E1.26276
G1 X166.414 Y124.695 E.00595
G1 X166.305 Y124.733 E.0045
G1 X152.196 Y124.733 E.54629
G1 X152.054 Y124.662 E.00618
G1 X152.018 Y124.555 E.00437
G1 X152.018 Y91.946 E1.26264
G1 X152.077 Y91.814 E.00563
G1 X152.159 Y91.782 E.0034
G1 E-.84 F2400
;WIPE_START
G1 F1200
G1 X153.159 Y91.781 E-.36
;WIPE_END
G1 F9000
G1 X152.597 Y91.6271 Z0.270769
G1 X152.172 Y91.2296 Z0.301538
G1 X151.98 Y90.6797 Z0.332308
G1 X152.065 Y90.1035 Z0.363077
G1 X152.408 Y89.633 Z0.393846
G1 X152.931 Y89.3759 Z0.424615
G1 X153.513 Y89.3912 Z0.455385
G1 X154.022 Y89.6753 Z0.486154
G1 X154.34 Y90.1632 Z0.516923
G1 X154.395 Y90.7431 Z0.547692
G1 X154.174 Y91.2821 Z0.578462
G1 X153.728 Y91.6568 Z0.609231
G1 X153.159 Y91.7813 Z0.64
G1 X104.133 Y90.495 Z.64
G1 Z.24
G1 E1.2 F1800
;TYPE:Inner wall
G1 F1200
G1 X104.308 Y90.424 E.00729
G1 X143.055 Y90.424 E1.50034
G1 X143.34 Y90.465 E.01119
G1 X143.594 Y90.578 E.01076
G1 X143.794 Y90.741 E.00999
G1 X144.021 Y91.114 E.0169
G1 X144.076 Y91.445 E.013
G1 X144.076 Y100.804 E.36236
G1 X144.01 Y101.163 E.01415
G1 X143.837 Y101.459 E.0133
G1 X143.607 Y101.662 E.01186
G1 X143.207 Y101.825 E.01674
G1 X104.446 Y101.825 E1.50087
G1 X104.054 Y101.746 E.01551
G1 X103.834 Y101.62 E.00981
